!!!OTL: ES WOLLT EIN JUNGFRAU INS KLOSTER GEHN;
!!!ARE: Europa, Mitteleuropa, Deutschland, Taunus - Kreis
!!!SCT: E0923
!!!YEM: Copyright 1995, estate of Helmut Schaffrath.
**kern
*ICvox
*Ivox
*M2/4
*k[b-]
*F:
{8c
=1
8f
8f
8a
8a
=2
8cc
8cc
8ff}
{8a
=3
8cc
8b-
8g
8a
=4
8g
8f
8r}
{8c
=5
8f
8f
8a
8a
=6
8cc
8cc
8ff}
{8a
=7
8cc
8b-
8g
8a
=8
8g
8f
8r}
{8a
=9
8b-
16b-
16a
8g
8g
=10
8cc
16cc
16b-
8a}
{8cc
=11
8ff
8cc
8b-
8a
=12
8a
8g
8r}
{8c
=13
8f
8f
8a
8a
=14
8cc
8cc
8ff}
{8a
=15
8cc
8b-
8g
8a
=16
8g
8f
8r}
==
!!!AGN: Ehestands - Lied, Nonnen - Klage
!!!ONB: ESAC (Essen Associative Code) Database: ERK2
!!!AMT: simple duple
!!!AIN: vox
!!!EED: Helmut Schaffrath
!!!EEV: 1.0
*-
